!!!COM: Claude Goudimel
!!!OMD: Psalm 1: Qui au conseil des malins
**kern	**kern	**kern	**kern
*part4	*part3	*part2	*part1
*staff4	*staff3	*staff2	*staff1
*I"bassus	*I"tenor	*I"contra	*I"superius
*clefF3	*clefC3	*clefC3	*clefG2
*k[b-]	*k[b-]	*k[b-]	*k[b-]
!!LO:TX:omd:t=
*M2/2	*M2/2	*M2/2	*M2/2
*met(c|)	*met(c|)	*met(c|)	*met(c|)
=1	=1	=1	=1
1F	1c	1f	1a
=2	=2	=2	=2
1BB-	1d	1f	1b-
=3	=3	=3	=3
1C	1c	1e	1g
=4	=4	=4	=4
1F	1A	1c	1f
=5	=5	=5	=5
1F	1c	1A	1f
=6	=6	=6	=6
2BB-	2B-	2d	2f
2F	2A	2c	2f
=7	=7	=7	=7
1BB-	1B-	1d	2g
.	.	.	[2f
=8	=8	=8	=8
1C	1G	1c	4f]
.	.	.	8e/L
.	.	.	8d/J
.	.	.	2e
=9	=9	=9	=9
1F	1F	1c	1f
=10	=10	=10	=10
2r	2r	2r	2r
2F	2F	2A	2c
=11	=11	=11	=11
1D	1A	1d	1f
=12	=12	=12	=12
1G	1B-	1d	1g
=13	=13	=13	=13
1C	1c	1e	1g
=14	=14	=14	=14
1F	1c	1f	1a
=15	=15	=15	=15
2BB-	2d	2f	2b-
2C	2c	2e	2g
=16	=16	=16	=16
2D	2A	2d	2f
2G	2B-	2d	2g
=17	=17	=17	=17
1F	1c	1f	1a
=18	=18	=18	=18
1r	1r	1r	1r
=19	=19	=19	=19
1F	1c	1f	1a
=20	=20	=20	=20
2F	2c	2f	2a
2G	2B-	2d	2g
=21	=21	=21	=21
1D	1A	1d	1f
=22	=22	=22	=22
1F	1A	1c	1f
=23	=23	=23	=23
2F	2A	2c	2f
2C	2G	2c	2e
=24	=24	=24	=24
2F	2A	2c	2f
2F	2c	2A	2a
=25	=25	=25	=25
1G	1B-	1d	1g
=26	=26	=26	=26
1D	1A	1d	1f
=27	=27	=27	=27
1r	1r	1r	1r
=28	=28	=28	=28
1F	1A	1c	1f
=29	=29	=29	=29
2F	2c	2A	2f
2BB-	2B-	2d	2f
=30	=30	=30	=30
1F	1A	1c	1f
=31	=31	=31	=31
1D	1d	1f	1a
=32	=32	=32	=32
2G	2d	2g	2b-
2D	2d	2f	2a
=33	=33	=33	=33
2F	2c	2f	2a
2G	2B-	2d	[2g
=34	=34	=34	=34
1D	1A	1d	2g]
.	.	.	2f#X
=35	=35	=35	=35
1G	1G	1d	1g
=36	=36	=36	=36
2r	2r	2r	2r
2F	2A	2c	2f
=37	=37	=37	=37
1F	1c	1f	1a
=38	=38	=38	=38
1A	1c	1e	1a
=39	=39	=39	=39
1G	1d	1g	1b-
=40	=40	=40	=40
1F	1f	1a	1cc
=41	=41	=41	=41
2C	2e	2g	2cc
2D	2d	2f	2a
=42	=42	=42	=42
1A	1c	1e	2a
.	.	.	[2cc
=43	=43	=43	=43
1G	1d	1g	4cc]
.	.	.	8bn/L
.	.	.	8a/J
.	.	.	2bn
=44	=44	=44	=44
1C	1c	1e	1cc
=45	=45	=45	=45
1r	1r	1r	1r
=46	=46	=46	=46
1F	1c	1f	1a
=47	=47	=47	=47
1BB-	1d	1f	1b-
=48	=48	=48	=48
1C	1c	1e	1g
=49	=49	=49	=49
1F	1A	1c	1f
=50	=50	=50	=50
1F	1c	1A	1f
=51	=51	=51	=51
2BB-	2B-	2d	2f
2F	2A	2c	2f
=52	=52	=52	=52
1BB-	1B-	1d	2g
.	.	.	[2f
=53	=53	=53	=53
1C	1G	1c	4f]
.	.	.	8e/L
.	.	.	8d/J
.	.	.	2e
=54	=54	=54	=54
1F;	1F;	1c;	1f;
==	==	==	==
*-	*-	*-	*-
!!!software: music21 v.9.7.1
!!!software: music21 v.8.3.0
!!!RDF**kern: > = above
!!!RDF**kern: < = below
